; LightBurn 0.9.16
; GRBL device profile, current position
; Bounds: X-13.15 Y-14.47 to X13.57 Y14.5
G00 G17 G40 G21 G54
G91
M4
; Cut @ 1000 mm/min, 10% power
M9
G0X-10.58Y3.11
; Layer 10%
G1Y-10.18S100F1000
; Cut @ 1000 mm/min, 30% power
M9
G0X5.43Y0
; Layer 30%
G1Y10.18S300
; Cut @ 1000 mm/min, 50% power
M9
G0X5.43Y0
; Layer 50%
G1Y-10.18S500
; Cut @ 1000 mm/min, 70% power
M9
G0X5.43Y0
; Layer 70%
G1Y10.18S700
; Cut @ 1000 mm/min, 90% power
M9
G0X5.43Y0
; Layer 90%
G1Y-10.18S900
; Scan @ 1000 mm/min, 10% power
M9
G0X-24.17Y-7.4
; Layer 10% FILL
G1X0.41S0
G1X4.1S100
G1X0.42S0
G1Y0.2S0
G1X-0.42S0
G1X-4.1S100
G1X-0.41S0
G1Y0.2S0
G1X0.41S0
G1X4.1S100
G1X0.42S0
G1Y0.2S0
G1X-0.42S0
G1X-4.1S100
G1X-0.41S0
G1Y0.2S0
G1X0.41S0
G1X4.1S100
G1X0.42S0
G1Y0.2S0
G1X-0.42S0
G1X-4.1S100
G1X-0.41S0
G1Y0.2S0
G1X0.41S0
G1X4.1S100
G1X0.42S0
G1Y0.2S0
G1X-0.42S0
G1X-4.1S100
G1X-0.41S0
G1Y0.2S0
G1X0.41S0
G1X4.1S100
G1X0.42S0
G1Y0.2S0
G1X-0.42S0
G1X-4.1S100
G1X-0.41S0
G1Y0.2S0
G1X0.41S0
G1X4.1S100
G1X0.42S0
G1Y0.2S0
G1X-0.42S0
G1X-4.1S100
G1X-0.41S0
G1Y0.2S0
G1X0.41S0
G1X4.1S100
G1X0.42S0
G1Y0.2S0
G1X-0.42S0
G1X-4.1S100
G1X-0.41S0
G1Y0.2S0
G1X0.41S0
G1X4.1S100
G1X0.42S0
G1Y0.2S0
G1X-0.42S0
G1X-4.1S100
G1X-0.41S0
G1Y0.2S0
G1X0.41S0
G1X4.1S100
G1X0.42S0
G1Y0.2S0
G1X-0.42S0
G1X-4.1S100
G1X-0.41S0
G1Y0.2S0
G1X0.41S0
G1X4.1S100
G1X0.42S0
G1Y0.2S0
G1X-0.42S0
G1X-4.1S100
G1X-0.41S0
G1Y0.2S0
G1X0.41S0
G1X4.1S100
G1X0.42S0
G1Y0.2S0
G1X-0.42S0
G1X-4.1S100
G1X-0.41S0
G1Y0.2S0
G1X0.41S0
G1X4.1S100
G1X0.42S0
G1Y0.2S0
G1X-0.42S0
G1X-4.1S100
G1X-0.41S0
G1Y0.2S0
G1X0.41S0
G1X4.1S100
G1X0.42S0
G1Y0.2S0
G1X-0.42S0
G1X-4.1S100
G1X-0.41S0
G1Y0.2S0
G1X0.41S0
G1X4.1S100
G1X0.42S0
; Scan @ 1000 mm/min, 30% power
M9
G0X0.48Y-5.2
; Layer 30% FILL
G1X0.42S0
G1X4.1S300
G1X0.41S0
G1Y0.2S0
G1X-0.41S0
G1X-4.1S300
G1X-0.42S0
G1Y0.2S0
G1X0.42S0
G1X4.1S300
G1X0.41S0
G1Y0.2S0
G1X-0.41S0
G1X-4.1S300
G1X-0.42S0
G1Y0.2S0
G1X0.42S0
G1X4.1S300
G1X0.41S0
G1Y0.2S0
G1X-0.41S0
G1X-4.1S300
G1X-0.42S0
G1Y0.2S0
G1X0.42S0
G1X4.1S300
G1X0.41S0
G1Y0.2S0
G1X-0.41S0
G1X-4.1S300
G1X-0.42S0
G1Y0.2S0
G1X0.42S0
G1X4.1S300
G1X0.41S0
G1Y0.2S0
G1X-0.41S0
G1X-4.1S300
G1X-0.42S0
G1Y0.2S0
G1X0.42S0
G1X4.1S300
G1X0.41S0
G1Y0.2S0
G1X-0.41S0
G1X-4.1S300
G1X-0.42S0
G1Y0.2S0
G1X0.42S0
G1X4.1S300
G1X0.41S0
G1Y0.2S0
G1X-0.41S0
G1X-4.1S300
G1X-0.42S0
G1Y0.2S0
G1X0.42S0
G1X4.1S300
G1X0.41S0
G1Y0.2S0
G1X-0.41S0
G1X-4.1S300
G1X-0.42S0
G1Y0.2S0
G1X0.42S0
G1X4.1S300
G1X0.41S0
G1Y0.2S0
G1X-0.41S0
G1X-4.1S300
G1X-0.42S0
G1Y0.2S0
G1X0.42S0
G1X4.1S300
G1X0.41S0
G1Y0.2S0
G1X-0.41S0
G1X-4.1S300
G1X-0.42S0
G1Y0.2S0
G1X0.42S0
G1X4.1S300
G1X0.41S0
G1Y0.2S0
G1X-0.41S0
G1X-4.1S300
G1X-0.42S0
G1Y0.2S0
G1X0.42S0
G1X4.1S300
G1X0.41S0
G1Y0.2S0
G1X-0.41S0
G1X-4.1S300
G1X-0.42S0
G1Y0.2S0
G1X0.42S0
G1X4.1S300
G1X0.41S0
G1Y0.2S0
G1X-0.41S0
G1X-4.1S300
G1X-0.42S0
G1Y0.2S0
G1X0.42S0
G1X4.1S300
G1X0.41S0
; Scan @ 1000 mm/min, 50% power
M9
G0X0.49Y-5.2
; Layer 50% FILL
G1X0.42S0
G1X4.1S500
G1X0.41S0
G1Y0.2S0
G1X-0.41S0
G1X-4.1S500
G1X-0.42S0
G1Y0.2S0
G1X0.42S0
G1X4.1S500
G1X0.41S0
G1Y0.2S0
G1X-0.41S0
G1X-4.1S500
G1X-0.42S0
G1Y0.2S0
G1X0.42S0
G1X4.1S500
G1X0.41S0
G1Y0.2S0
G1X-0.41S0
G1X-4.1S500
G1X-0.42S0
G1Y0.2S0
G1X0.42S0
G1X4.1S500
G1X0.41S0
G1Y0.2S0
G1X-0.41S0
G1X-4.1S500
G1X-0.42S0
G1Y0.2S0
G1X0.42S0
G1X4.1S500
G1X0.41S0
G1Y0.2S0
G1X-0.41S0
G1X-4.1S500
G1X-0.42S0
G1Y0.2S0
G1X0.42S0
G1X4.1S500
G1X0.41S0
G1Y0.2S0
G1X-0.41S0
G1X-4.1S500
G1X-0.42S0
G1Y0.2S0
G1X0.42S0
G1X4.1S500
G1X0.41S0
G1Y0.2S0
G1X-0.41S0
G1X-4.1S500
G1X-0.42S0
G1Y0.2S0
G1X0.42S0
G1X4.1S500
G1X0.41S0
G1Y0.2S0
G1X-0.41S0
G1X-4.1S500
G1X-0.42S0
G1Y0.2S0
G1X0.42S0
G1X4.1S500
G1X0.41S0
G1Y0.2S0
G1X-0.41S0
G1X-4.1S500
G1X-0.42S0
G1Y0.2S0
G1X0.42S0
G1X4.1S500
G1X0.41S0
G1Y0.2S0
G1X-0.41S0
G1X-4.1S500
G1X-0.42S0
G1Y0.2S0
G1X0.42S0
G1X4.1S500
G1X0.41S0
G1Y0.2S0
G1X-0.41S0
G1X-4.1S500
G1X-0.42S0
G1Y0.2S0
G1X0.42S0
G1X4.1S500
G1X0.41S0
G1Y0.2S0
G1X-0.41S0
G1X-4.1S500
G1X-0.42S0
G1Y0.2S0
G1X0.42S0
G1X4.1S500
G1X0.41S0
G1Y0.2S0
G1X-0.41S0
G1X-4.1S500
G1X-0.42S0
G1Y0.2S0
G1X0.42S0
G1X4.1S500
G1X0.41S0
; Scan @ 1000 mm/min, 70% power
M9
G0X0.49Y-5.2
; Layer 70% FILL
G1X0.42S0
G1X4.09S700
G1X0.42S0
G1Y0.2S0
G1X-0.42S0
G1X-4.09S700
G1X-0.42S0
G1Y0.2S0
G1X0.42S0
G1X4.09S700
G1X0.42S0
G1Y0.2S0
G1X-0.42S0
G1X-4.09S700
G1X-0.42S0
G1Y0.2S0
G1X0.42S0
G1X4.09S700
G1X0.42S0
G1Y0.2S0
G1X-0.42S0
G1X-4.09S700
G1X-0.42S0
G1Y0.2S0
G1X0.42S0
G1X4.09S700
G1X0.42S0
G1Y0.2S0
G1X-0.42S0
G1X-4.09S700
G1X-0.42S0
G1Y0.2S0
G1X0.42S0
G1X4.09S700
G1X0.42S0
G1Y0.2S0
G1X-0.42S0
G1X-4.09S700
G1X-0.42S0
G1Y0.2S0
G1X0.42S0
G1X4.09S700
G1X0.42S0
G1Y0.2S0
G1X-0.42S0
G1X-4.09S700
G1X-0.42S0
G1Y0.2S0
G1X0.42S0
G1X4.09S700
G1X0.42S0
G1Y0.2S0
G1X-0.42S0
G1X-4.09S700
G1X-0.42S0
G1Y0.2S0
G1X0.42S0
G1X4.09S700
G1X0.42S0
G1Y0.2S0
G1X-0.42S0
G1X-4.09S700
G1X-0.42S0
G1Y0.2S0
G1X0.42S0
G1X4.09S700
G1X0.42S0
G1Y0.2S0
G1X-0.42S0
G1X-4.09S700
G1X-0.42S0
G1Y0.2S0
G1X0.42S0
G1X4.09S700
G1X0.42S0
G1Y0.2S0
G1X-0.42S0
G1X-4.09S700
G1X-0.42S0
G1Y0.2S0
G1X0.42S0
G1X4.09S700
G1X0.42S0
G1Y0.2S0
G1X-0.42S0
G1X-4.09S700
G1X-0.42S0
G1Y0.2S0
G1X0.42S0
G1X4.09S700
G1X0.42S0
G1Y0.2S0
G1X-0.42S0
G1X-4.09S700
G1X-0.42S0
G1Y0.2S0
G1X0.42S0
G1X4.09S700
G1X0.42S0
G1Y0.2S0
G1X-0.42S0
G1X-4.09S700
G1X-0.42S0
G1Y0.2S0
G1X0.42S0
G1X4.09S700
G1X0.42S0
; Scan @ 1000 mm/min, 90% power
M9
G0X0.49Y-5.2
; Layer 90% FILL
G1X0.41S0
G1X4.1S900
G1X0.42S0
G1Y0.2S0
G1X-0.42S0
G1X-4.1S900
G1X-0.41S0
G1Y0.2S0
G1X0.41S0
G1X4.1S900
G1X0.42S0
G1Y0.2S0
G1X-0.42S0
G1X-4.1S900
G1X-0.41S0
G1Y0.2S0
G1X0.41S0
G1X4.1S900
G1X0.42S0
G1Y0.2S0
G1X-0.42S0
G1X-4.1S900
G1X-0.41S0
G1Y0.2S0
G1X0.41S0
G1X4.1S900
G1X0.42S0
G1Y0.2S0
G1X-0.42S0
G1X-4.1S900
G1X-0.41S0
G1Y0.2S0
G1X0.41S0
G1X4.1S900
G1X0.42S0
G1Y0.2S0
G1X-0.42S0
G1X-4.1S900
G1X-0.41S0
G1Y0.2S0
G1X0.41S0
G1X4.1S900
G1X0.42S0
G1Y0.2S0
G1X-0.42S0
G1X-4.1S900
G1X-0.41S0
G1Y0.2S0
G1X0.41S0
G1X4.1S900
G1X0.42S0
G1Y0.2S0
G1X-0.42S0
G1X-4.1S900
G1X-0.41S0
G1Y0.2S0
G1X0.41S0
G1X4.1S900
G1X0.42S0
G1Y0.2S0
G1X-0.42S0
G1X-4.1S900
G1X-0.41S0
G1Y0.2S0
G1X0.41S0
G1X4.1S900
G1X0.42S0
G1Y0.2S0
G1X-0.42S0
G1X-4.1S900
G1X-0.41S0
G1Y0.2S0
G1X0.41S0
G1X4.1S900
G1X0.42S0
G1Y0.2S0
G1X-0.42S0
G1X-4.1S900
G1X-0.41S0
G1Y0.2S0
G1X0.41S0
G1X4.1S900
G1X0.42S0
G1Y0.2S0
G1X-0.42S0
G1X-4.1S900
G1X-0.41S0
G1Y0.2S0
G1X0.41S0
G1X4.1S900
G1X0.42S0
G1Y0.2S0
G1X-0.42S0
G1X-4.1S900
G1X-0.41S0
G1Y0.2S0
G1X0.41S0
G1X4.1S900
G1X0.42S0
G1Y0.2S0
G1X-0.42S0
G1X-4.1S900
G1X-0.41S0
G1Y0.2S0
G1X0.41S0
G1X4.1S900
G1X0.42S0
; Cut @ 800 mm/min, 50% power
M9
G0X-3.55Y15.54
; Layer TEXT
G1X-0.28Y0.01S500F800
G1X-0.23Y0.06
G1X-0.21Y0.09
G1X-0.2Y0.11
G1X-0.18Y0.14
G1X-0.16Y0.17
G1X-0.14Y0.18
G1X-0.11Y0.21
G1X-0.08Y0.22
G1X-0.12Y0.47
G1X-0.09Y0.49
G1X-0.06Y0.49
G1X-0.01Y0.49
G1X-0.02Y0.69
G1X0.03Y0.69
G1X0.08Y0.69
G1X0.12Y0.67
G1X0.07Y0.26
G1X0.11Y0.25
G1X0.13Y0.24
G1X0.15Y0.21
G1X0.2Y0.19
G1X0.23Y0.15
G1X0.25Y0.1
G1X0.26Y0.05
G1X0.26
G1X0.27Y-0.04
G1X0.25Y-0.1
G1X0.24Y-0.14
G1X0.26Y-0.25
G1X0.21Y-0.28
G1X0.16Y-0.32
G1X0.1Y-0.35
G1X0.13Y-0.79
G1X0.07Y-0.8
G1X0.01Y-0.8
G1X-0.04Y-0.8
G1X-0.03Y-0.37
G1X-0.05Y-0.37
G1X-0.08Y-0.36
G1X-0.1Y-0.36
G1X-0.07Y-0.2
G1X-0.1Y-0.18
G1X-0.12Y-0.18
G1X-0.13Y-0.15
G1X-0.16Y-0.14
G1X-0.17Y-0.12
G1X-0.18Y-0.1
G1X-0.2Y-0.08
G1X-0.27Y-0.04
G0X0.15Y-0.9
; Layer TEXT
G1X0.32Y0.04
G1X0.32Y0.08
G1X0.29Y0.12
G1X0.28Y0.16
G1X0.26Y0.19
G1X0.23Y0.23
G1X0.2Y0.25
G1X0.16Y0.28
G1X0.23Y0.51
G1X0.17Y0.52
G1X0.11Y0.54
G1X0.06Y0.54
G1X0.04Y0.76
G1Y0.75
G1X-0.05Y0.75
G1X-0.1Y0.75
G1X-0.12Y0.48
G1X-0.17Y0.47
G1X-0.23Y0.43
G1X-0.27Y0.42
G1X-0.2Y0.2
G1X-0.21Y0.18
G1X-0.23Y0.15
G1X-0.25Y0.13
G1X-0.26Y0.09
G1X-0.26Y0.07
G1X-0.28Y0.04
G1X-0.28
G1X-0.39Y-0.02
G1X-0.38Y-0.07
G1X-0.35Y-0.13
G1X-0.33Y-0.18
G1X-0.3Y-0.23
G1X-0.27Y-0.27
G1X-0.22Y-0.31
G1X-0.17Y-0.35
G1X-0.21Y-0.54
G1X-0.14Y-0.56
G1X-0.1Y-0.58
G1X-0.04Y-0.57
G1X-0.03Y-0.74
G1X0.03Y-0.73
G1X0.07Y-0.73
G1X0.13Y-0.73
G1X0.11Y-0.39
G1X0.14Y-0.38
G1X0.19Y-0.36
G1X0.22Y-0.34
G1X0.2Y-0.22
G1X0.22Y-0.19
G1X0.24Y-0.16
G1X0.25Y-0.13
G1X0.27Y-0.11
G1X0.28Y-0.07
G1X0.28Y-0.04
G1X0.3
G1X0.24
G0X-5.92Y1.71
; Layer TEXT
G1X-0.12Y-0.18
G1X-0.13Y-0.15
G1X-0.16Y-0.14
G1X-0.17Y-0.12
G1X-0.18Y-0.1
G1X-0.2Y-0.08
G1X-0.27Y-0.04
G1X-0.28Y0.01
G1X-0.23Y0.06
G1X-0.21Y0.09
G1X-0.2Y0.11
G1X-0.18Y0.14
G1X-0.16Y0.17
G1X-0.14Y0.18
G1X-0.11Y0.21
G1X-0.08Y0.22
G1X-0.12Y0.47
G1X-0.09Y0.49
G1X-0.06Y0.49
G1X-0.01Y0.49
G1X-0.02Y0.69
G1X0.03Y0.69
G1X0.08Y0.69
G1X0.12Y0.67
G1X0.07Y0.26
G1X0.11Y0.25
G1X0.13Y0.24
G1X0.15Y0.21
G1X0.2Y0.19
G1X0.23Y0.15
G1X0.25Y0.1
G1X0.26Y0.05
G1X0.26
G1X0.27Y-0.04
G1X0.25Y-0.1
G1X0.24Y-0.14
G1X0.26Y-0.25
G1X0.21Y-0.28
G1X0.16Y-0.32
G1X0.1Y-0.35
G1X0.13Y-0.79
G1X0.07Y-0.8
G1X0.01Y-0.8
G1X-0.04Y-0.8
G1X-0.03Y-0.37
G1X-0.05Y-0.37
G1X-0.08Y-0.36
G1X-0.1Y-0.36
G1X-0.07Y-0.2
G1X-0.1Y-0.18
G0X0.98Y-0.36
; Layer TEXT
G1X0.23Y0.51
G1X0.17Y0.52
G1X0.11Y0.54
G1X0.06Y0.54
G1X0.04Y0.76
G1Y0.75
G1X-0.05Y0.75
G1X-0.1Y0.75
G1X-0.12Y0.48
G1X-0.17Y0.47
G1X-0.23Y0.43
G1X-0.27Y0.42
G1X-0.2Y0.2
G1X-0.21Y0.18
G1X-0.23Y0.15
G1X-0.25Y0.13
G1X-0.26Y0.09
G1X-0.26Y0.07
G1X-0.28Y0.04
G1X-0.28
G1X-0.39Y-0.02
G1X-0.38Y-0.07
G1X-0.35Y-0.13
G1X-0.33Y-0.18
G1X-0.3Y-0.23
G1X-0.27Y-0.27
G1X-0.22Y-0.31
G1X-0.17Y-0.35
G1X-0.21Y-0.54
G1X-0.14Y-0.56
G1X-0.1Y-0.58
G1X-0.04Y-0.57
G1X-0.03Y-0.74
G1X0.03Y-0.73
G1X0.07Y-0.73
G1X0.13Y-0.73
G1X0.11Y-0.39
G1X0.14Y-0.38
G1X0.19Y-0.36
G1X0.22Y-0.34
G1X0.2Y-0.22
G1X0.22Y-0.19
G1X0.24Y-0.16
G1X0.25Y-0.13
G1X0.27Y-0.11
G1X0.28Y-0.07
G1X0.28Y-0.04
G1X0.3
G1X0.24
G1X0.32Y0.04
G1X0.32Y0.08
G1X0.29Y0.12
G1X0.28Y0.16
G1X0.26Y0.19
G1X0.23Y0.23
G1X0.2Y0.25
G1X0.16Y0.28
G0X-7.81Y0.74
; Layer TEXT
G1X-0.07Y-0.2
G1X-0.1Y-0.18
G1X-0.12Y-0.18
G1X-0.13Y-0.15
G1X-0.16Y-0.14
G1X-0.17Y-0.12
G1X-0.18Y-0.1
G1X-0.2Y-0.08
G1X-0.27Y-0.04
G1X-0.28Y0.01
G1X-0.23Y0.06
G1X-0.21Y0.09
G1X-0.2Y0.11
G1X-0.18Y0.14
G1X-0.16Y0.17
G1X-0.14Y0.18
G1X-0.11Y0.21
G1X-0.08Y0.22
G1X-0.12Y0.47
G1X-0.09Y0.49
G1X-0.06Y0.49
G1X-0.01Y0.49
G1X-0.02Y0.69
G1X0.03Y0.69
G1X0.08Y0.69
G1X0.12Y0.67
G1X0.07Y0.26
G1X0.11Y0.25
G1X0.13Y0.24
G1X0.15Y0.21
G1X0.2Y0.19
G1X0.23Y0.15
G1X0.25Y0.1
G1X0.26Y0.05
G1X0.26
G1X0.27Y-0.04
G1X0.25Y-0.1
G1X0.24Y-0.14
G1X0.26Y-0.24
G1X0.21Y-0.29
G1X0.16Y-0.32
G1X0.1Y-0.35
G1X0.12Y-0.67
G1X0.07Y-0.68
G1X0.02Y-0.68
G1X-0.01Y-0.68
G1X-0.02Y-0.49
G1X-0.05Y-0.49
G1X-0.09Y-0.48
G1X-0.13Y-0.48
G0X1.04Y-0.23
; Layer TEXT
G1X0.17Y0.52
G1X0.11Y0.54
G1X0.06Y0.54
G1X0.04Y0.76
G1Y0.75
G1X-0.05Y0.75
G1X-0.1Y0.75
G1X-0.12Y0.48
G1X-0.17Y0.47
G1X-0.23Y0.43
G1X-0.27Y0.42
G1X-0.2Y0.2
G1X-0.21Y0.18
G1X-0.23Y0.15
G1X-0.25Y0.13
G1X-0.26Y0.09
G1X-0.26Y0.07
G1X-0.28Y0.04
G1X-0.28
G1X-0.39Y-0.02
G1X-0.38Y-0.07
G1X-0.35Y-0.13
G1X-0.33Y-0.18
G1X-0.3Y-0.23
G1X-0.27Y-0.27
G1X-0.22Y-0.31
G1X-0.17Y-0.35
G1X-0.21Y-0.54
G1X-0.14Y-0.56
G1X-0.1Y-0.57
G1X-0.04Y-0.58
G1X-0.03Y-0.74
G1X0.03Y-0.73
G1X0.07Y-0.73
G1X0.13Y-0.73
G1X0.11Y-0.39
G1X0.14Y-0.38
G1X0.19Y-0.36
G1X0.22Y-0.34
G1X0.2Y-0.22
G1X0.22Y-0.19
G1X0.24Y-0.16
G1X0.25Y-0.13
G1X0.27Y-0.11
G1X0.28Y-0.07
G1X0.28Y-0.04
G1X0.3
G1X0.24
G1X0.32Y0.04
G1X0.32Y0.08
G1X0.29Y0.12
G1X0.28Y0.16
G1X0.26Y0.19
G1X0.23Y0.23
G1X0.2Y0.25
G1X0.16Y0.28
G1X0.23Y0.51
G0X-8.31Y-1.71
; Layer TEXT
G1Y8.98
G1X-0.71
G1X-0.27Y-0.42
G1X-0.32Y-0.4
G1X-0.35Y-0.35
G1X-0.4Y-0.32
G1X-0.29Y-0.21
G1X-0.31Y-0.2
G1X-0.32Y-0.18
G1X-0.33Y-0.16
G1Y-1.07
G1X0.59Y0.26
G1X0.57Y0.31
G1X0.54Y0.35
G1X0.5Y0.41
G1Y-7
G1X1.1
M9
G1S0
M5
; return to starting pos
G0 X9.85Y-5.52
M2
