; LightBurn 0.9.16
; GRBL device profile, current position
; Bounds: X-13.13 Y-14.47 to X13.13 Y14.5
G00 G17 G40 G21 G54
G91
M4
; Cut @ 600 mm/min, 10% power
M9
G0X-10.85Y3.11
; Layer 10%
G1Y-10.18S100F600
; Cut @ 600 mm/min, 30% power
M9
G0X5.43Y0
; Layer 30%
G1Y10.18S300
; Cut @ 600 mm/min, 50% power
M9
G0X5.43Y-0
; Layer 50%
G1Y-10.18S500
; Cut @ 600 mm/min, 70% power
M9
G0X5.43Y0
; Layer 70%
G1Y10.18S700
; Cut @ 600 mm/min, 90% power
M9
G0X5.43Y-0
; Layer 90%
G1Y-10.18S900
; Scan @ 600 mm/min, 10% power
M9
G0X-24Y-7.4
; Layer 10% FILL
G1X0.25S0
G1X4.09S100
G1X0.25S0
G1Y0.2S0
G1X-0.25S0
G1X-4.09S100
G1X-0.25S0
G1Y0.2S0
G1X0.25S0
G1X4.09S100
G1X0.25S0
G1Y0.2S0
G1X-0.25S0
G1X-4.09S100
G1X-0.25S0
G1Y0.2S0
G1X0.25S0
G1X4.09S100
G1X0.25S0
G1Y0.2S0
G1X-0.25S0
G1X-4.09S100
G1X-0.25S0
G1Y0.2S0
G1X0.25S0
G1X4.09S100
G1X0.25S0
G1Y0.2S0
G1X-0.25S0
G1X-4.09S100
G1X-0.25S0
G1Y0.2S0
G1X0.25S0
G1X4.09S100
G1X0.25S0
G1Y0.2S0
G1X-0.25S0
G1X-4.09S100
G1X-0.25S0
G1Y0.2S0
G1X0.25S0
G1X4.09S100
G1X0.25S0
G1Y0.2S0
G1X-0.25S0
G1X-4.09S100
G1X-0.25S0
G1Y0.2S0
G1X0.25S0
G1X4.09S100
G1X0.25S0
G1Y0.2S0
G1X-0.25S0
G1X-4.09S100
G1X-0.25S0
G1Y0.2S0
G1X0.25S0
G1X4.09S100
G1X0.25S0
G1Y0.2S0
G1X-0.25S0
G1X-4.09S100
G1X-0.25S0
G1Y0.2S0
G1X0.25S0
G1X4.09S100
G1X0.25S0
G1Y0.2S0
G1X-0.25S0
G1X-4.09S100
G1X-0.25S0
G1Y0.2S0
G1X0.25S0
G1X4.09S100
G1X0.25S0
G1Y0.2S0
G1X-0.25S0
G1X-4.09S100
G1X-0.25S0
G1Y0.2S0
G1X0.25S0
G1X4.09S100
G1X0.25S0
G1Y0.2S0
G1X-0.25S0
G1X-4.09S100
G1X-0.25S0
G1Y0.2S0
G1X0.25S0
G1X4.09S100
G1X0.25S0
G1Y0.2S0
G1X-0.25S0
G1X-4.09S100
G1X-0.25S0
G1Y0.2S0
G1X0.25S0
G1X4.09S100
G1X0.25S0
G1Y0.2S0
G1X-0.25S0
G1X-4.09S100
G1X-0.25S0
G1Y0.2S0
G1X0.25S0
G1X4.09S100
G1X0.25S0
; Scan @ 600 mm/min, 30% power
M9
G0X0.82Y-5.2
; Layer 30% FILL
G1X0.25S0
G1X4.1S300
G1X0.25S0
G1Y0.2S0
G1X-0.25S0
G1X-4.1S300
G1X-0.25S0
G1Y0.2S0
G1X0.25S0
G1X4.1S300
G1X0.25S0
G1Y0.2S0
G1X-0.25S0
G1X-4.1S300
G1X-0.25S0
G1Y0.2S0
G1X0.25S0
G1X4.1S300
G1X0.25S0
G1Y0.2S0
G1X-0.25S0
G1X-4.1S300
G1X-0.25S0
G1Y0.2S0
G1X0.25S0
G1X4.1S300
G1X0.25S0
G1Y0.2S0
G1X-0.25S0
G1X-4.1S300
G1X-0.25S0
G1Y0.2S0
G1X0.25S0
G1X4.1S300
G1X0.25S0
G1Y0.2S0
G1X-0.25S0
G1X-4.1S300
G1X-0.25S0
G1Y0.2S0
G1X0.25S0
G1X4.1S300
G1X0.25S0
G1Y0.2S0
G1X-0.25S0
G1X-4.1S300
G1X-0.25S0
G1Y0.2S0
G1X0.25S0
G1X4.1S300
G1X0.25S0
G1Y0.2S0
G1X-0.25S0
G1X-4.1S300
G1X-0.25S0
G1Y0.2S0
G1X0.25S0
G1X4.1S300
G1X0.25S0
G1Y0.2S0
G1X-0.25S0
G1X-4.1S300
G1X-0.25S0
G1Y0.2S0
G1X0.25S0
G1X4.1S300
G1X0.25S0
G1Y0.2S0
G1X-0.25S0
G1X-4.1S300
G1X-0.25S0
G1Y0.2S0
G1X0.25S0
G1X4.1S300
G1X0.25S0
G1Y0.2S0
G1X-0.25S0
G1X-4.1S300
G1X-0.25S0
G1Y0.2S0
G1X0.25S0
G1X4.1S300
G1X0.25S0
G1Y0.2S0
G1X-0.25S0
G1X-4.1S300
G1X-0.25S0
G1Y0.2S0
G1X0.25S0
G1X4.1S300
G1X0.25S0
G1Y0.2S0
G1X-0.25S0
G1X-4.1S300
G1X-0.25S0
G1Y0.2S0
G1X0.25S0
G1X4.1S300
G1X0.25S0
G1Y0.2S0
G1X-0.25S0
G1X-4.1S300
G1X-0.25S0
G1Y0.2S0
G1X0.25S0
G1X4.1S300
G1X0.25S0
; Scan @ 600 mm/min, 50% power
M9
G0X0.82Y-5.2
; Layer 50% FILL
G1X0.25S0
G1X4.1S500
G1X0.25S0
G1Y0.2S0
G1X-0.25S0
G1X-4.1S500
G1X-0.25S0
G1Y0.2S0
G1X0.25S0
G1X4.1S500
G1X0.25S0
G1Y0.2S0
G1X-0.25S0
G1X-4.1S500
G1X-0.25S0
G1Y0.2S0
G1X0.25S0
G1X4.1S500
G1X0.25S0
G1Y0.2S0
G1X-0.25S0
G1X-4.1S500
G1X-0.25S0
G1Y0.2S0
G1X0.25S0
G1X4.1S500
G1X0.25S0
G1Y0.2S0
G1X-0.25S0
G1X-4.1S500
G1X-0.25S0
G1Y0.2S0
G1X0.25S0
G1X4.1S500
G1X0.25S0
G1Y0.2S0
G1X-0.25S0
G1X-4.1S500
G1X-0.25S0
G1Y0.2S0
G1X0.25S0
G1X4.1S500
G1X0.25S0
G1Y0.2S0
G1X-0.25S0
G1X-4.1S500
G1X-0.25S0
G1Y0.2S0
G1X0.25S0
G1X4.1S500
G1X0.25S0
G1Y0.2S0
G1X-0.25S0
G1X-4.1S500
G1X-0.25S0
G1Y0.2S0
G1X0.25S0
G1X4.1S500
G1X0.25S0
G1Y0.2S0
G1X-0.25S0
G1X-4.1S500
G1X-0.25S0
G1Y0.2S0
G1X0.25S0
G1X4.1S500
G1X0.25S0
G1Y0.2S0
G1X-0.25S0
G1X-4.1S500
G1X-0.25S0
G1Y0.2S0
G1X0.25S0
G1X4.1S500
G1X0.25S0
G1Y0.2S0
G1X-0.25S0
G1X-4.1S500
G1X-0.25S0
G1Y0.2S0
G1X0.25S0
G1X4.1S500
G1X0.25S0
G1Y0.2S0
G1X-0.25S0
G1X-4.1S500
G1X-0.25S0
G1Y0.2S0
G1X0.25S0
G1X4.1S500
G1X0.25S0
G1Y0.2S0
G1X-0.25S0
G1X-4.1S500
G1X-0.25S0
G1Y0.2S0
G1X0.25S0
G1X4.1S500
G1X0.25S0
G1Y0.2S0
G1X-0.25S0
G1X-4.1S500
G1X-0.25S0
G1Y0.2S0
G1X0.25S0
G1X4.1S500
G1X0.25S0
; Scan @ 600 mm/min, 70% power
M9
G0X0.82Y-5.2
; Layer 70% FILL
G1X0.25S0
G1X4.1S700
G1X0.25S0
G1Y0.2S0
G1X-0.25S0
G1X-4.1S700
G1X-0.25S0
G1Y0.2S0
G1X0.25S0
G1X4.1S700
G1X0.25S0
G1Y0.2S0
G1X-0.25S0
G1X-4.1S700
G1X-0.25S0
G1Y0.2S0
G1X0.25S0
G1X4.1S700
G1X0.25S0
G1Y0.2S0
G1X-0.25S0
G1X-4.1S700
G1X-0.25S0
G1Y0.2S0
G1X0.25S0
G1X4.1S700
G1X0.25S0
G1Y0.2S0
G1X-0.25S0
G1X-4.1S700
G1X-0.25S0
G1Y0.2S0
G1X0.25S0
G1X4.1S700
G1X0.25S0
G1Y0.2S0
G1X-0.25S0
G1X-4.1S700
G1X-0.25S0
G1Y0.2S0
G1X0.25S0
G1X4.1S700
G1X0.25S0
G1Y0.2S0
G1X-0.25S0
G1X-4.1S700
G1X-0.25S0
G1Y0.2S0
G1X0.25S0
G1X4.1S700
G1X0.25S0
G1Y0.2S0
G1X-0.25S0
G1X-4.1S700
G1X-0.25S0
G1Y0.2S0
G1X0.25S0
G1X4.1S700
G1X0.25S0
G1Y0.2S0
G1X-0.25S0
G1X-4.1S700
G1X-0.25S0
G1Y0.2S0
G1X0.25S0
G1X4.1S700
G1X0.25S0
G1Y0.2S0
G1X-0.25S0
G1X-4.1S700
G1X-0.25S0
G1Y0.2S0
G1X0.25S0
G1X4.1S700
G1X0.25S0
G1Y0.2S0
G1X-0.25S0
G1X-4.1S700
G1X-0.25S0
G1Y0.2S0
G1X0.25S0
G1X4.1S700
G1X0.25S0
G1Y0.2S0
G1X-0.25S0
G1X-4.1S700
G1X-0.25S0
G1Y0.2S0
G1X0.25S0
G1X4.1S700
G1X0.25S0
G1Y0.2S0
G1X-0.25S0
G1X-4.1S700
G1X-0.25S0
G1Y0.2S0
G1X0.25S0
G1X4.1S700
G1X0.25S0
G1Y0.2S0
G1X-0.25S0
G1X-4.1S700
G1X-0.25S0
G1Y0.2S0
G1X0.25S0
G1X4.1S700
G1X0.25S0
; Scan @ 600 mm/min, 90% power
M9
G0X0.82Y-5.2
; Layer 90% FILL
G1X0.25S0
G1X4.09S900
G1X0.25S0
G1Y0.2S0
G1X-0.25S0
G1X-4.09S900
G1X-0.25S0
G1Y0.2S0
G1X0.25S0
G1X4.09S900
G1X0.25S0
G1Y0.2S0
G1X-0.25S0
G1X-4.09S900
G1X-0.25S0
G1Y0.2S0
G1X0.25S0
G1X4.09S900
G1X0.25S0
G1Y0.2S0
G1X-0.25S0
G1X-4.09S900
G1X-0.25S0
G1Y0.2S0
G1X0.25S0
G1X4.09S900
G1X0.25S0
G1Y0.2S0
G1X-0.25S0
G1X-4.09S900
G1X-0.25S0
G1Y0.2S0
G1X0.25S0
G1X4.09S900
G1X0.25S0
G1Y0.2S0
G1X-0.25S0
G1X-4.09S900
G1X-0.25S0
G1Y0.2S0
G1X0.25S0
G1X4.09S900
G1X0.25S0
G1Y0.2S0
G1X-0.25S0
G1X-4.09S900
G1X-0.25S0
G1Y0.2S0
G1X0.25S0
G1X4.09S900
G1X0.25S0
G1Y0.2S0
G1X-0.25S0
G1X-4.09S900
G1X-0.25S0
G1Y0.2S0
G1X0.25S0
G1X4.09S900
G1X0.25S0
G1Y0.2S0
G1X-0.25S0
G1X-4.09S900
G1X-0.25S0
G1Y0.2S0
G1X0.25S0
G1X4.09S900
G1X0.25S0
G1Y0.2S0
G1X-0.25S0
G1X-4.09S900
G1X-0.25S0
G1Y0.2S0
G1X0.25S0
G1X4.09S900
G1X0.25S0
G1Y0.2S0
G1X-0.25S0
G1X-4.09S900
G1X-0.25S0
G1Y0.2S0
G1X0.25S0
G1X4.09S900
G1X0.25S0
G1Y0.2S0
G1X-0.25S0
G1X-4.09S900
G1X-0.25S0
G1Y0.2S0
G1X0.25S0
G1X4.09S900
G1X0.25S0
G1Y0.2S0
G1X-0.25S0
G1X-4.09S900
G1X-0.25S0
G1Y0.2S0
G1X0.25S0
G1X4.09S900
G1X0.25S0
G1Y0.2S0
G1X-0.25S0
G1X-4.09S900
G1X-0.25S0
G1Y0.2S0
G1X0.25S0
G1X4.09S900
G1X0.25S0
; Cut @ 600 mm/min, 50% power
M9
G0X-6.61Y15.58
; Layer TEXT
G1X-0.27Y-0.04S500
G1X-0.28Y0.01
G1X-0.22Y0.06
G1X-0.22Y0.08
G1X-0.2Y0.12
G1X-0.18Y0.14
G1X-0.16Y0.16
G1X-0.13Y0.19
G1X-0.11Y0.2
G1X-0.09Y0.22
G1X-0.12Y0.48
G1X-0.09Y0.49
G1X-0.05Y0.49
G1X-0.02Y0.49
G1X-0.02Y0.69
G1X0.03Y0.69
G1X0.08Y0.68
G1X0.13Y0.68
G1X0.07Y0.26
G1X0.1Y0.25
G1X0.13Y0.23
G1X0.16Y0.22
G1X0.2Y0.19
G1X0.23Y0.15
G1X0.24Y0.09
G1X0.26Y0.06
G1X0.27
G1X0.26Y-0.05
G1X0.25Y-0.09
G1X0.24Y-0.14
G1X0.26Y-0.25
G1X0.22Y-0.28
G1X0.16Y-0.32
G1X0.1Y-0.35
G1X0.12Y-0.79
G1X0.07Y-0.8
G1X0.01Y-0.8
G1X-0.03Y-0.8
G1X-0.03Y-0.37
G1X-0.06Y-0.37
G1X-0.07Y-0.36
G1X-0.1Y-0.36
G1X-0.08Y-0.2
G1X-0.09Y-0.19
G1X-0.12Y-0.17
G1X-0.14Y-0.15
G1X-0.15Y-0.14
G1X-0.17Y-0.12
G1X-0.19Y-0.1
G1X-0.2Y-0.08
G0X0.82Y-0.7
; Layer TEXT
G1X0.28Y0.16
G1X0.25Y0.19
G1X0.23Y0.22
G1X0.2Y0.26
G1X0.17Y0.28
G1X0.22Y0.51
G1X0.17Y0.52
G1X0.11Y0.53
G1X0.06Y0.55
G1X0.05Y0.75
G1Y0.76
G1X-0.06Y0.75
G1X-0.1Y0.75
G1X-0.11Y0.48
G1X-0.18Y0.46
G1X-0.22Y0.44
G1X-0.28Y0.41
G1X-0.19Y0.21
G1X-0.22Y0.17
G1X-0.23Y0.16
G1X-0.24Y0.12
G1X-0.26Y0.1
G1X-0.27Y0.07
G1X-0.28Y0.03
G1X-0.28Y0.01
G1X-0.39Y-0.02
G1X-0.37Y-0.07
G1X-0.36Y-0.13
G1X-0.33Y-0.18
G1X-0.3Y-0.23
G1X-0.26Y-0.27
G1X-0.22Y-0.32
G1X-0.18Y-0.34
G1X-0.2Y-0.55
G1X-0.15Y-0.56
G1X-0.1Y-0.57
G1X-0.04Y-0.58
G1X-0.02Y-0.73
G1X0.02Y-0.74
G1X0.08Y-0.73
G1X0.12Y-0.72
G1X0.11Y-0.39
G1X0.15Y-0.38
G1X0.18Y-0.36
G1X0.23Y-0.34
G1X0.19Y-0.22
G1X0.22Y-0.19
G1X0.24Y-0.16
G1X0.25Y-0.14
G1X0.27Y-0.1
G1X0.28Y-0.07
G1X0.29Y-0.04
G1X0.29Y-0.01
G1X0.24Y0.01
G1X0.33Y0.04
G1X0.31Y0.08
G1X0.3Y0.12
G0X-6.76Y1.65
; Layer TEXT
G1X-0.09Y-0.19
G1X-0.12Y-0.17
G1X-0.14Y-0.15
G1X-0.15Y-0.14
G1X-0.17Y-0.12
G1X-0.19Y-0.1
G1X-0.2Y-0.08
G1X-0.27Y-0.04
G1X-0.28Y0.01
G1X-0.22Y0.06
G1X-0.22Y0.08
G1X-0.2Y0.12
G1X-0.18Y0.14
G1X-0.16Y0.16
G1X-0.13Y0.19
G1X-0.11Y0.2
G1X-0.09Y0.22
G1X-0.12Y0.48
G1X-0.09Y0.49
G1X-0.05Y0.49
G1X-0.02Y0.49
G1X-0.02Y0.69
G1X0.03Y0.69
G1X0.08Y0.68
G1X0.13Y0.68
G1X0.07Y0.26
G1X0.1Y0.25
G1X0.13Y0.23
G1X0.16Y0.22
G1X0.2Y0.19
G1X0.23Y0.15
G1X0.24Y0.09
G1X0.26Y0.06
G1X0.27
G1X0.26Y-0.05
G1X0.25Y-0.09
G1X0.24Y-0.14
G1X0.26Y-0.25
G1X0.22Y-0.28
G1X0.16Y-0.32
G1X0.1Y-0.35
G1X0.12Y-0.79
G1X0.07Y-0.8
G1X0.01Y-0.8
G1X-0.03Y-0.8
G1X-0.03Y-0.37
G1X-0.06Y-0.37
G1X-0.07Y-0.36
G1X-0.1Y-0.36
G1X-0.08Y-0.2
G0X1.11Y-0.03
; Layer TEXT
G1X0.17Y0.52
G1X0.11Y0.53
G1X0.06Y0.55
G1X0.05Y0.75
G1Y0.76
G1X-0.06Y0.75
G1X-0.1Y0.75
G1X-0.11Y0.48
G1X-0.18Y0.46
G1X-0.22Y0.44
G1X-0.28Y0.41
G1X-0.19Y0.21
G1X-0.22Y0.17
G1X-0.23Y0.16
G1X-0.24Y0.12
G1X-0.26Y0.1
G1X-0.27Y0.07
G1X-0.28Y0.03
G1X-0.28Y0.01
G1X-0.39Y-0.02
G1X-0.37Y-0.07
G1X-0.36Y-0.13
G1X-0.33Y-0.18
G1X-0.3Y-0.23
G1X-0.26Y-0.27
G1X-0.22Y-0.32
G1X-0.18Y-0.34
G1X-0.2Y-0.55
G1X-0.15Y-0.56
G1X-0.1Y-0.57
G1X-0.04Y-0.58
G1X-0.02Y-0.73
G1X0.02Y-0.74
G1X0.08Y-0.73
G1X0.12Y-0.72
G1X0.11Y-0.39
G1X0.15Y-0.38
G1X0.18Y-0.36
G1X0.23Y-0.34
G1X0.19Y-0.22
G1X0.22Y-0.19
G1X0.24Y-0.16
G1X0.25Y-0.14
G1X0.27Y-0.1
G1X0.28Y-0.07
G1X0.29Y-0.04
G1X0.29Y-0.01
G1X0.24Y0.01
G1X0.33Y0.04
G1X0.31Y0.08
G1X0.3Y0.12
G1X0.28Y0.16
G1X0.25Y0.19
G1X0.23Y0.22
G1X0.2Y0.26
G1X0.17Y0.28
G1X0.22Y0.51
G0X-7.77Y0.51
; Layer TEXT
G1X-0.13Y-0.4
G1X-0.19Y-0.37
G1X-0.14Y-0.18
G1X-0.16Y-0.15
G1X-0.18Y-0.13
G1X-0.2Y-0.11
G1X-0.21Y-0.07
G1X-0.21Y-0.05
G1X-0.23Y-0.01
G1X-0.22Y0.01
G1X-0.22Y0.05
G1X-0.21Y0.08
G1X-0.2Y0.1
G1X-0.18Y0.12
G1X-0.17Y0.15
G1X-0.14Y0.16
G1X-0.13Y0.19
G1X-0.1Y0.2
G1X-0.11Y0.26
G1X-0.08Y0.28
G1X-0.05Y0.28
G1X-0.01Y0.28
G1X0.03Y0.29
G1X0.05Y0.27
G1X0.09Y0.28
G1X0.13Y0.26
G1X0.21Y0.27
G1X0.25Y0.22
G1X0.28Y0.16
G1X0.3Y0.11
G1X0.32Y0.06
G1X0.33Y-0.01
G1X0.32Y-0.07
G1X0.32Y-0.13
G1X0.19Y-0.14
G1X0.18Y-0.15
G1X0.15Y-0.18
G1X0.13Y-0.2
G1X0.1Y-0.2
G1X0.08Y-0.22
G1X0.04Y-0.24
G1X0.02Y-0.23
G1X0.01Y-0.42
G1X-0.06Y-0.42
G0X1.09Y-0.16
; Layer TEXT
G1X0.07Y0.38
G1X0.03Y0.38
G1X-0.02Y0.38
G1X-0.05Y0.38
G1X-0.1Y0.38
G1X-0.14Y0.36
G1X-0.25Y0.43
G1X-0.32Y0.36
G1X-0.38Y0.29
G1X-0.42Y0.21
G1X-0.45Y0.14
G1X-0.47Y0.05
G1X-0.48Y-0.03
G1X-0.48Y-0.13
G1X-0.38Y-0.18
G1X-0.34Y-0.23
G1X-0.29Y-0.29
G1X-0.25Y-0.33
G1Y0.53
G1X0.06Y0.52
G1X0.1Y0.51
G1X0.15Y0.51
G1X0.14Y0.32
G1X0.19Y0.29
G1X0.22Y0.26
G1X0.27Y0.23
G1X0.24Y0.15
G1X0.26Y0.1
G1X0.27Y0.05
G1X0.27
G1X0.27Y-0.05
G1X0.25Y-0.1
G1X0.24Y-0.14
G1X0.21Y-0.19
G1X0.15Y-0.21
G1X0.12Y-0.23
G1X0.09Y-0.24
G1X0.06Y-0.25
G1X1.09Y0.08
G1X-0.04Y0.29
G1X-0.07Y0.28
G1X-0.11Y0.27
G1X-0.13Y0.25
G1X-0.17Y0.24
G1X-0.19Y0.21
G1X-0.21Y0.19
G1X-0.25Y0.17
G1X-0.4Y0.18
G1X-0.43Y0.11
G1X-0.44Y0.05
G1X-0.44Y-0.03
G1X-0.33Y-0.04
G1X-0.31Y-0.09
G1X-0.3Y-0.12
G1X-0.29Y-0.15
G1X-0.26Y-0.19
G1X-0.24Y-0.22
G1X-0.22Y-0.24
G1X-0.18Y-0.27
G1X-0.26Y-0.54
G1X-0.2Y-0.55
G1X-0.14Y-0.57
G1X-0.07Y-0.59
G1X-0.07Y-0.8
G1X0.01Y-0.81
G1X0.07Y-0.8
G1X0.14Y-0.79
G1X0.11Y-0.36
G1X0.14Y-0.34
G1X0.18Y-0.33
G1X0.22Y-0.31
G1X0.22Y-0.23
G1X0.24Y-0.21
G1X0.27Y-0.17
G1X0.28Y-0.15
G1X0.29Y-0.11
G1X0.31Y-0.08
G1X0.31Y-0.05
G1X0.32Y-0.01
G1X0.39Y0.03
G1X0.33Y0.06
G1X0.31Y0.1
G1X0.3Y0.13
G1X0.28Y0.18
G1X0.25Y0.2
G1X0.22Y0.24
G1X0.2Y0.26
G1X0.16Y0.29
G1X0.15Y0.36
G1X0.12Y0.37
M9
G1S0
M5
; return to starting pos
G0 X4.99Y-7.58
M2
